public/favicon.svg

<svg width="158" height="132" viewBox="0 0 158 132" fill="none" xmlns="http://www.w3.org/2000/svg">
<path d="M59.8105 132C52.8994 110.512 37.8421 66.5701 34.6659 62.711L41.724 0L66.4274 71.0432L59.8105 132Z" fill="#3949AA"/>
<path d="M121.569 128.492L94.2188 78.0598L99.5124 35.9601L126.863 85.9535L121.569 128.492Z" fill="#3949A9"/>
<path d="M99.5124 35.9601L91.3714 104.129C89.4729 120.027 75.9141 132 59.8105 132L66.8694 65.1815C68.6242 48.5715 82.7122 35.9601 99.5124 35.9601Z" fill="url(#paint0_linear_28_46)"/>
<path d="M0.116639 115.741L11.4445 26.5402C13.3706 11.3734 26.3464 0 41.724 0L28.9896 119.079C28.2039 126.426 21.969 132 14.5366 132C5.78704 132 -0.979261 124.371 0.116639 115.741Z" fill="url(#paint1_linear_28_46)"/>
<path d="M127.884 77.2251L121.569 128.492C139.578 128.492 154.634 114.881 156.342 97.0592L157.931 80.4757C158.776 71.6549 151.798 64.0266 142.885 64.0266C135.249 64.0266 128.812 69.6897 127.884 77.2251Z" fill="url(#paint2_linear_28_46)"/>
<defs>
<linearGradient id="paint0_linear_28_46" x1="115.867" y1="-2.05975e-07" x2="111.486" y2="133.07" gradientUnits="userSpaceOnUse">
<stop stop-color="#6DC1F3"/>
<stop offset="1" stop-color="#F41CA9"/>
</linearGradient>
<linearGradient id="paint1_linear_28_46" x1="142.04" y1="-6.89036e-07" x2="137.268" y2="134.046" gradientUnits="userSpaceOnUse">
<stop stop-color="#6EC0F3"/>
<stop offset="1" stop-color="#F718A8"/>
</linearGradient>
<linearGradient id="paint2_linear_28_46" x1="147.155" y1="64.0266" x2="140.615" y2="128.499" gradientUnits="userSpaceOnUse">
<stop stop-color="#F021AB"/>
<stop offset="1" stop-color="#74B9EF"/>
</linearGradient>
</defs>
</svg>

<svg width="794" height="135" fill="none" xmlns="http://www.w3.org/2000/svg"><path d="M59.81 132c-6.91-21.488-21.968-65.43-25.144-69.289L41.724 0l24.703 71.043L59.81 132Z" fill="#3949AA"/><path d="M121.569 128.492 94.219 78.06l5.293-42.1 27.351 49.994-5.294 42.538Z" fill="#3949A9"/><path d="m99.512 35.96-8.14 68.169C89.471 120.027 75.913 132 59.81 132l7.06-66.819c1.754-16.61 15.842-29.22 32.642-29.22Z" fill="url(#a)"/><path d="m.117 115.741 11.328-89.2C13.37 11.372 26.346 0 41.724 0L28.99 119.079C28.204 126.426 21.969 132 14.537 132c-8.75 0-15.516-7.629-14.42-16.259Z" fill="url(#b)"/><path d="m127.884 77.225-6.315 51.267c18.009 0 33.065-13.611 34.773-31.433l1.589-16.583c.845-8.821-6.133-16.45-15.046-16.45-7.636 0-14.073 5.664-15.001 13.2Z" fill="url(#c)"/><path d="M607.24 81.832c.256 0 .384.128.384.256.128 1.664.128 3.328.128 5.12v2.816c-.128 2.944-.512 5.76-1.024 8.448-.384 1.792-.896 3.712-1.408 5.504l-.384 1.28c-6.272 17.92-21.76 28.032-42.624 28.032-17.536 0-33.664-10.368-41.088-26.496l-.512-1.28C518.152 99.752 517 93.48 517 87.208 517 61.736 537.352 41 562.312 41c20.352 0 34.56 8.064 41.216 23.424.128.256 0 .384-.128.512l-16.896 8.192c-.128.128-.256.128-.256 0-.128 0-.128 0-.256-.128-3.84-8.576-11.776-13.184-23.04-13.184-14.208 0-25.856 12.288-25.856 27.392 0 14.976 11.648 27.264 25.856 27.264 11.648 0 20.096-5.632 23.808-15.744h-30.976c-.128 0-.256-.128-.256-.128-.128-.128-.128-.256 0-.384l7.936-16.256c0-.128.128-.128.256-.128h43.52ZM704.24 82.832c.256 0 .384.128.384.256.128 1.664.128 3.328.128 5.12v2.816c-.128 2.944-.512 5.76-1.024 8.448-.384 1.792-.896 3.712-1.408 5.504l-.384 1.28c-6.272 17.92-21.76 28.032-42.624 28.032-17.536 0-33.664-10.368-41.088-26.496l-.512-1.28c-2.56-5.76-3.712-12.032-3.712-18.304C614 62.736 634.352 42 659.312 42c20.352 0 34.56 8.064 41.216 23.424.128.256 0 .384-.128.512l-16.896 8.192c-.128.128-.256.128-.256 0-.128 0-.128 0-.256-.128-3.84-8.576-11.776-13.184-23.04-13.184-14.208 0-25.856 12.288-25.856 27.392 0 14.976 11.648 27.264 25.856 27.264 11.648 0 20.096-5.632 23.808-15.744h-30.976c-.128 0-.256-.128-.256-.128-.128-.128-.128-.256 0-.384l7.936-16.256c0-.128.128-.128.256-.128h43.52ZM287.76 86.8l24.576 44.288c.128 0 .128.128 0 .256 0 .128-.256.256-.256.256h-21.76a.275.275 0 0 1-.256-.256l-13.568-24.32-13.568 24.32a.275.275 0 0 1-.256.256H242.96c-.256 0-.384-.256-.384-.384V50.832l-4.48-8.448c-.128 0-.128-.128 0-.256 0-.128.128-.128.256-.128h23.424c.256 0 .384.128.384.256v50.048l27.904-50.176c0-.128.128-.128.256-.128h21.76c.128 0 .256 0 .256.128s.128.256 0 .384L287.76 86.8ZM351.912 131.344l-34.816-88.96c-.128-.128-.128-.256 0-.256 0-.128.128-.128.256-.128h19.584c.128 0 .256 0 .256.128l24.064 61.312 11.264-28.672-12.672-32.384v-.256c.128-.128.128-.128.256-.128h19.584c.128 0 .256 0 .256.128l8.704 22.272 15.36 39.04 24.064-61.312c0-.128.128-.128.256-.128h19.584s.128 0 .256.128v.256l-34.816 88.96c0 .128-.128.256-.384.256H394.92v-.128h-.256v-.128l-12.032-30.72-12.032 30.72c-.128.128-.256.256-.384.256h-18.048v-.128h-.256v-.128ZM482.6 42.128l34.816 88.96v.256c-.128.128-.256.128-.384.128h-19.456c-.128 0-.256 0-.384-.128l-6.784-17.408h-34.432l-6.784 17.408a.275.275 0 0 1-.256.256h-19.584a.275.275 0 0 1-.256-.256c-.128 0-.128-.128 0-.256l30.848-78.72-5.376-9.984c-.128 0-.128-.128 0-.256 0-.128.128-.128.256-.128h27.392c.128 0 .256 0 .384.128Zm-9.344 27.904L462.888 96.4h20.736l-10.368-26.368ZM758.6 42.128l34.816 88.96v.256c-.128.128-.256.128-.384.128h-19.456c-.128 0-.256 0-.384-.128l-6.784-17.408h-34.432l-6.784 17.408a.275.275 0 0 1-.256.256h-19.584a.275.275 0 0 1-.256-.256c-.128 0-.128-.128 0-.256l30.848-78.72-5.376-9.984c-.128 0-.128-.128 0-.256 0-.128.128-.128.256-.128h27.392c.128 0 .256 0 .384.128Zm-9.344 27.904L738.888 96.4h20.736l-10.368-26.368Z" fill="#fff"/><defs><linearGradient id="a" x1="581.838" y1="0" x2="580.935" y2="135.517" gradientUnits="userSpaceOnUse"><stop stop-color="#6DC1F3"/><stop offset="1" stop-color="#F41CA9"/></linearGradient><linearGradient id="b" x1="713.273" y1="0" x2="712.288" y2="136.535" gradientUnits="userSpaceOnUse"><stop stop-color="#6EC0F3"/><stop offset="1" stop-color="#F718A8"/></linearGradient><linearGradient id="c" x1="738.955" y1="65.136" x2="737.594" y2="131.374" gradientUnits="userSpaceOnUse"><stop stop-color="#F021AB"/><stop offset="1" stop-color="#74B9EF"/></linearGradient></defs></svg>
